public/dist/img/ico-arrow.svg

<?xml version="1.0" encoding="UTF-8" standalone="no"?>
<svg width="20px" height="12px" viewBox="0 0 20 12" version="1.1" xmlns="http://www.w3.org/2000/svg" xmlns:xlink="http://www.w3.org/1999/xlink" xmlns:sketch="http://www.bohemiancoding.com/sketch/ns">
    <!-- Generator: Sketch 3.5.1 (25234) - http://www.bohemiancoding.com/sketch -->
    <title>Rectangle 21</title>
    <desc>Created with Sketch.</desc>
    <defs></defs>
    <g id="Page-1" stroke="none" stroke-width="1" fill="none" fill-rule="evenodd" sketch:type="MSPage">
        <g id="ico-arrow" sketch:type="MSLayerGroup" fill="#FFFFFF">
            <path d="M15.5857864,7 L0,7 L0,5 L15.5857864,5 L13.2928932,2.70710678 L12.5857864,2 L14,0.585786438 L14.7071068,1.29289322 L18.7071068,5.29289322 L19.4142136,6 L19.0606602,6.35355339 L18.7071068,6.70710678 L14.7071068,10.7071068 L14,11.4142136 L12.5857864,10 L13.2928932,9.29289322 L15.5857864,7 Z" id="Rectangle-21" sketch:type="MSShapeGroup"></path>
        </g>
    </g>
</svg>

<svg width="20" height="12" viewBox="0 0 20 12" xmlns="http://www.w3.org/2000/svg"><title>Rectangle 21</title><path d="M15.586 7H0V5h15.586l-2.293-2.293L12.586 2 14 .586l.707.707 4 4 .707.707-.353.354-.353.353-4 4-.707.707L12.586 10l.707-.707L15.586 7z" fill="#FFF" fill-rule="evenodd"/></svg>
